vsi/debug-restart-frame_light.svg

<svg viewBox="0 0 16 16" fill="none" xmlns="http://www.w3.org/2000/svg" height="1em" width="1em">
  <path fill-rule="evenodd" clip-rule="evenodd" d="M1.00024 9.99988V8.99988H6.20728C6.11612 9.32216 6.05361 9.65647 6.02267 9.99988H1.00024ZM7.25741 6.99988C7.57076 6.62045 7.93403 6.28376 8.33716 5.99988H1.00024V6.99988H7.25741ZM6.59995 12.9999C6.43801 12.6831 6.30588 12.3485 6.20728 11.9999H1.00024V12.9999H6.59995ZM15.0002 2.99988V3.99988H1.00024V2.99988H15.0002ZM11.6409 13.0311C13.0388 13.0311 14.1721 11.8978 14.1721 10.4999C14.1721 9.10191 13.0388 7.96863 11.6409 7.96863C10.7039 7.96863 9.88592 8.47766 9.44825 9.23425H10.5159V10.078H8.54712L8.12524 9.65613V7.40613H8.96899V8.43764C9.58624 7.6391 10.5535 7.12488 11.6409 7.12488C13.5048 7.12488 15.0159 8.63592 15.0159 10.4999C15.0159 12.3638 13.5048 13.8749 11.6409 13.8749C10.2567 13.8749 9.06713 13.0416 8.54645 11.8493L9.32873 11.5316C9.72366 12.4153 10.6103 13.0311 11.6409 13.0311Z" fill="#388A34"/>
</svg>

<svg viewBox="0 0 16 16" fill="none" xmlns="http://www.w3.org/2000/svg" height="1em" width="1em">
  <path fill-rule="evenodd" clip-rule="evenodd" d="M1 10V9h5.207a5.478 5.478 0 0 0-.184 1H1Zm6.257-3a5.54 5.54 0 0 1 1.08-1H1v1h6.257ZM6.6 13a5.464 5.464 0 0 1-.393-1H1v1h5.6ZM15 3v1H1V3h14Zm-3.36 10.03a2.531 2.531 0 1 0-2.192-3.797h1.068v.844H8.547l-.422-.422v-2.25h.844v1.032a3.375 3.375 0 1 1-.423 3.412l.783-.318a2.532 2.532 0 0 0 2.312 1.5Z" fill="#388A34"/>
</svg>
